!! Aleut songs
!! From: Shirley A. Hauck,
!! "Extinction and Reconstruction of Aleut Music and Dance"
!! PhD dissertation, University of Pittsburgh, 1986.
!! page 214
!! Cry No More
**kern	**silbe
*clefG2	*
*k[b-e-a-d-]	*k[b-e-a-d-]
*M5/16	*M5/16
*>[A,B,B,C]	*>[A,B,B,C]
*>A	*
=1-	=1-
8A-	Ho-
8A-	-ch-
16A-	-oh
=2	=2
8A-	Ho-
8A-	-ch-
16A-	-oh
=3	=3
8A-	Ho-
8A-	-ch-
16A-	-oh
=4	=4
8A-	wa
8r	.
16r	.
=5||:	=5||:
*>B	*>B
16B-	Hoong-
8B-	-oong-
8B-	-a
=6	=6
16d-	Hey-
8B-	-na-
8B-	-na
=7	=7
16d-	Hey-
8B-	-ho-
8B-	-wa
=8	=8
8F	Hey-
8B-	-thday-
16.B-	-ya
=9	=9
8B-	.
8r	.
16r	.
*>C	*>C
=10	=10
16F	.
16.B-	.
32d-	.
16c	.
16.B-	.
=11	=11
8F	.
8.B-	.
16B-	.
=12	=12
8B-	.
8r	.
16r	.
=13	=13
*M2/4	*M2/4
16B-	Hey-
8B-	-ho-
8B-	-cho-
8B-	-ho-
16.B-	-cho
16r	.
=14	=14
8B-	Ho
8B-	Ho
2r	.
=15	=15
*-	*-
